dist/img/arrow-next.svg

<svg width="27" height="15" viewBox="0 0 27 15" fill="none" xmlns="http://www.w3.org/2000/svg">
<path fill-rule="evenodd" clip-rule="evenodd" d="M23.0666 6.76262L19.0412 2.73726C18.6507 2.34673 18.6507 1.71357 19.0412 1.32304L19.1014 1.26286C19.4919 0.87234 20.1251 0.87234 20.5156 1.26286L26.1725 6.91972C26.4193 7.16655 26.5101 7.51032 26.445 7.82849C26.5101 8.14665 26.4193 8.49042 26.1725 8.73726L20.5156 14.3941C20.1251 14.7846 19.4919 14.7846 19.1014 14.3941L19.0412 14.3339C18.6507 13.9434 18.6507 13.3102 19.0412 12.9197L23.1983 8.76262H1C0.447715 8.76262 0 8.31491 0 7.76262C0 7.21034 0.447715 6.76262 1 6.76262H23.0666Z" fill="#505759"/>
</svg>

<svg width="27" height="15" fill="none" xmlns="http://www.w3.org/2000/svg"><path fill-rule="evenodd" clip-rule="evenodd" d="M23.067 6.763L19.04 2.737a1 1 0 010-1.414l.06-.06a1 1 0 011.415 0l5.657 5.657a1 1 0 01.272.908 1 1 0 01-.273.91l-5.656 5.656a1 1 0 01-1.415 0l-.06-.06a1 1 0 010-1.414l4.157-4.157H1a1 1 0 110-2h22.067z" fill="#505759"/></svg>
